X:1
T:Adieu, ma tres bielle mestresse
T:Adieu, ma tres bielle mestresse
T:Anonymous
T:Public Domain - https://imslp.org/wiki/Adieu%2C_ma_tres_bielle_mestresse_(Anonymous)
C:Anonymous
Z:Public Domain - https://imslp.org/wiki/Adieu%2C_ma_tres_bielle_mestresse_(Anonymous)
%%score [ 1 2 3 ]
L:1/8
Q:3/4=130
M:3/1
K:F
V:1 alto1 nm="Soprano"
V:2 tenor nm="Contra." snm="Bar."
V:3 tenor nm="Tenor." snm="B."
V:1
 G8 G8 G8 | A8 B12 A4 | A8 G12 F4 | F8 A12 G4 | (B8 A12) G4 | G12"^♯" F4"^♯" F4 E4 | G24 | %7
w: A\- dieu, ma|tres * biel\--|* * le|* me- *|* * stress\--|* se, * *||
 z8 z8 F8 | G8 A12 G4- | G4 F4 E12 D4 | D12 D4"^♯" C4"^♯" B,4 | D8 z8 F8 | (E8 D8) E4 F4 | %13
w: A\-|dieu cel\-- *||* le * *|* que|j'ai- * me *|
 (G8 A12) G4 | F24 | z24 | F8 F8 F8 | E8 A12 G4 | G8 G4"^♯" F8 E4 | G8 z4 A8 G4 | (F8 E12) D4 | %21
w: * * tant,|||A\- dieu vous|di * *||* tout main\--|* te\-- *|
 (D8"^♯" C12)"^♯" B,4 | D24 | z8 z8 F8 | E4 A8 A4 G4 F4 | A8 G4 E8 D4 | F4 G4 B4 A8 G4 | %27
w: * nant, *||A\--|* * dieu * *|* l'e\-- * spoir|* * * * de|
 G8 F4 D4 F4 G4 | (A12 B8) G4 | (G8"^♯" F12) E4 | G32 |] %31
w: * ma * * *|* li\- es\--|* * se.||
V:2
 D16 D8 | A,8 G,16 | (A,8 D16 | C16) A,8 | G,8 z4 D,4 E,4 F,4 | G,8 D,16 | z8 D16 | (D8 C8) D8 | %8
w: Adieu ma|tres biel\--|* le|me\- stres\-|se * * *||a\-|dieu * cel\-|
 C8 D16 | B,4 G,4 B,12 A,4 | (A,8 G,12) F,4 | A,8 D12 C4 | B,8 z8 A,8 | G,12 F,8 E,4 | D,24- | %15
w: le *||||* que|j'ai\- me tant.||
 D,24 | D,16 D8 | C16 F,8 | G,8 D,16 | z4 D4 C4 D8 C4 | B,16 A,8 | A,8 G,16 | z8 A,16- | A,16 D,8 | %24
w: |* A\-|dieu vous|di *|tout * * main\--|* te\-|* nant,||* A\-|
 (A,8 D16) | C16 A,8 | D,16 E,8 | G,8 D,16 | F,4 G,4 z4 D8 B,4 | G,8 D,16 | D32 |] %31
w: dieu l'e\--|spoie de|ma li\-|es\-- *||* se.||
V:3
 G,16 G,8 | C8 D16 | (C8 B,16 | F,16) C8 | D16 C8 | B,8 A,16 | G,24- | G,16 D,8 | E,8 D,16 | %9
w: Adieu ma|tres biel\--|* le|* me\-|stres\- *|se, *||* a\-|dieu cel\-|
 D,8 G,16 | (F,8 E,16 | D,24 | G,16) C8 | B,8 (A,16 | D24- | D24) | (D24 | A,16) C8 | B,8 A,16 | %19
w: le que|j'ai\- me|tant,|||||A\--|dieu vous|di *|
 G,8 E,4 F,4 D,8 | (G,16 F,8- | F,8 E,16) | D,24- | D,16 A,8 | C8 B,16 | (A,8 C16 | D16) C8 | %27
w: tout main\-- * *|* te\--||nant,|* A\-|dieu l'e\-|spoir *|de ma li\-|
 B,8 D16 | C4 B,4 A,8 G,8 | B,8 A,16 | G,32 |] %31
w: es\-- *||* se.||

